panorama-vertical.svg

<svg fill="currentColor" viewBox="0 0 24 24"><path d="M18.5 12c0-3.9.8-6.9 1.4-8.7.2-.6-.2-1.3-.9-1.3H5c-.7 0-1.2.7-.9 1.3.6 2.1 1.4 4.8 1.4 8.7s-.8 6.7-1.4 8.7c-.3.6.2 1.3.9 1.3h14c.7 0 1.2-.7 1-1.3-.7-2-1.5-4.8-1.5-8.7"/></svg>

<svg  viewBox="0 0 24 24" fill="currentColor"><path  d="M18.5 12C18.5 8.1 19.3 5.1 19.9 3.3C20.1 2.7 19.7 2 19 2H5C4.3 2 3.8 2.7 4.1 3.3C4.7 5.4 5.5 8.1 5.5 12C5.5 15.9 4.7 18.7 4.1 20.7C3.8 21.3 4.3 22 5 22H19C19.7 22 20.2 21.3 20 20.7C19.3 18.7 18.5 15.9 18.5 12Z"/></svg>
